icons/rows-24.svg

<svg width="24" height="24" viewBox="0 0 24 24" fill="none" xmlns="http://www.w3.org/2000/svg">
<path fill-rule="evenodd" clip-rule="evenodd" d="M22 3.75C22 2.7835 21.2165 2 20.25 2H3.75C2.7835 2 2 2.7835 2 3.75V9.25C2 10.2165 2.7835 11 3.75 11L20.25 11C21.2165 11 22 10.2165 22 9.25V3.75ZM20.25 3.5C20.3881 3.5 20.5 3.61193 20.5 3.75V9.25C20.5 9.38807 20.3881 9.5 20.25 9.5L3.75 9.5C3.61193 9.5 3.5 9.38807 3.5 9.25L3.5 3.75C3.5 3.61193 3.61193 3.5 3.75 3.5L20.25 3.5ZM22 14.75C22 13.7835 21.2165 13 20.25 13L3.75 13C2.7835 13 2 13.7835 2 14.75V20.25C2 21.2165 2.7835 22 3.75 22H20.25C21.2165 22 22 21.2165 22 20.25V14.75ZM20.25 14.5C20.3881 14.5 20.5 14.6119 20.5 14.75V20.25C20.5 20.3881 20.3881 20.5 20.25 20.5H3.75C3.61193 20.5 3.5 20.3881 3.5 20.25L3.5 14.75C3.5 14.6119 3.61193 14.5 3.75 14.5L20.25 14.5Z" fill="#24292E"/>
</svg>

<svg xmlns="http://www.w3.org/2000/svg" width="24" height="24" viewBox="0 0 24 24"><path fill-rule="evenodd" d="M22 3.75A1.75 1.75 0 0020.25 2H3.75A1.75 1.75 0 002 3.75v5.5c0 .966.784 1.75 1.75 1.75h16.5A1.75 1.75 0 0022 9.25v-5.5zm-1.75-.25a.25.25 0 01.25.25v5.5a.25.25 0 01-.25.25H3.75a.25.25 0 01-.25-.25v-5.5a.25.25 0 01.25-.25h16.5zM22 14.75A1.75 1.75 0 0020.25 13H3.75A1.75 1.75 0 002 14.75v5.5c0 .966.784 1.75 1.75 1.75h16.5A1.75 1.75 0 0022 20.25v-5.5zm-1.75-.25a.25.25 0 01.25.25v5.5a.25.25 0 01-.25.25H3.75a.25.25 0 01-.25-.25v-5.5a.25.25 0 01.25-.25h16.5z"/></svg>
